src/ui/Svg/optimized/parachains.svg

<?xml version="1.0" standalone="no"?>
<!DOCTYPE svg PUBLIC "-//W3C//DTD SVG 1.1//EN" "http://www.w3.org/Graphics/SVG/1.1/DTD/svg11.dtd">
<svg class="icon" version="1.1" viewBox="0 0 1024 1024" fill="currentColor" aria-hidden="true">
  <path d="M258.45372467 994.63884895a229.84334571 229.84334571 0 0 1-162.16665325-66.92592037A227.21564428 227.21564428 0 0 1 29.36115105 765.38539571c0-61.56326704 23.59567758-118.89003647 66.92592037-162.27390686l173.96449127-174.07174486a227.00113863 227.00113863 0 0 1 162.16665325-66.92592038c61.56326704 0 118.83641042 23.59567758 162.22028083 66.92592038 17.16049293 17.16049293 17.16049293 44.51002771 0 61.61689307a43.27661678 43.27661678 0 0 1-61.56326703 0 139.96526621 139.96526621 0 0 0-100.12074737-41.29243384c-37.96758945 0-73.84374389 14.47916546-100.06712135 41.29243384l-173.96449284 174.07174485a142.64659366 142.64659366 0 0 0 0 200.83138874c26.75964233 26.81326991 62.0995319 41.2388078 100.06712137 41.2388078 38.02121546 0 73.89736991-14.47916546 100.12074892-41.2388078l173.96449127-174.07174485a43.27661678 43.27661678 0 0 1 61.56326703 0c17.16049293 17.16049293 17.16049293 44.45640011 0 61.61689304l-173.96449281 174.07174486A225.07058323 225.07058323 0 0 1 258.45372467 994.63884895z m495.18745903-400.05397976l173.96449127-174.12537088a229.30707926 229.30707926 0 0 0 0-324.01154726 228.98532003 228.98532003 0 0 0-323.90429368 0l-173.91086523 174.07174486a43.33024281 43.33024281 0 0 0 0 61.56326702c17.10686534 17.16049293 44.40277411 17.16049293 61.50963945 0L665.37190037 158.0648441a139.96526621 139.96526621 0 0 1 100.06712135-41.29243539c38.02121546 0 73.89736991 14.47916546 100.12074893 41.29243539a142.64659366 142.64659366 0 0 1 0 200.83138717l-173.96449282 174.07174487a142.43208645 142.43208645 0 0 1-200.77776117 0 43.27661678 43.27661678 0 0 0-61.50963945 0 43.33024281 43.33024281 0 0 0 0 61.56326703 228.878068 228.878068 0 0 0 162.16665325 66.97954641c58.88193957 0 117.22761428-21.98688142 162.22027928-66.97954641z"/>
</svg>

<svg xmlns="http://www.w3.org/2000/svg" class="icon" viewBox="0 0 1024 1024" fill="currentColor" aria-hidden="true">
  <path d="M258.454 994.639a229.843 229.843 0 01-162.167-66.926 227.216 227.216 0 01-66.926-162.328c0-61.563 23.596-118.89 66.926-162.274L270.252 429.04a227.001 227.001 0 01162.166-66.926c61.563 0 118.837 23.596 162.22 66.926 17.161 17.16 17.161 44.51 0 61.617a43.277 43.277 0 01-61.563 0 139.965 139.965 0 00-100.12-41.293c-37.968 0-73.844 14.48-100.068 41.293L158.923 664.728a142.647 142.647 0 000 200.832c26.76 26.813 62.1 41.239 100.067 41.239 38.021 0 73.897-14.48 100.12-41.24l173.965-174.071a43.277 43.277 0 0161.563 0c17.161 17.16 17.161 44.456 0 61.617L420.674 927.177a225.07 225.07 0 01-162.22 67.462zM753.64 594.585l173.965-174.126a229.307 229.307 0 000-324.011 228.985 228.985 0 00-323.905 0L429.791 270.52a43.33 43.33 0 000 61.563c17.106 17.16 44.402 17.16 61.51 0l174.07-174.018a139.965 139.965 0 01100.068-41.293c38.021 0 73.897 14.48 100.12 41.293a142.647 142.647 0 010 200.831L691.596 532.968a142.432 142.432 0 01-200.777 0 43.277 43.277 0 00-61.51 0 43.33 43.33 0 000 61.563 228.878 228.878 0 00162.167 66.98c58.881 0 117.227-21.987 162.22-66.98z"/>
</svg>
